images/logo.svg

<svg height="116" viewBox="0 0 184 116" width="184" xmlns="http://www.w3.org/2000/svg"><path d="m18.788 88.8h-18.72v5.544h6.48v19.656h5.76v-19.656h6.48zm12.888 6.696c-2.376 0-4.176.864-5.148 2.196v-8.892h-5.4v25.2h5.4v-9.828c0-2.556 1.368-3.708 3.348-3.708 1.728 0 3.132 1.044 3.132 3.276v10.26h5.4v-11.052c0-4.86-3.096-7.452-6.732-7.452zm15.264 11.664c.684 1.872 2.34 2.52 4.32 2.52 1.476 0 2.736-.576 3.456-1.368l4.32 2.484c-1.764 2.448-4.428 3.708-7.848 3.708-6.156 0-9.972-4.14-9.972-9.504s3.888-9.504 9.576-9.504c5.256 0 9.144 4.068 9.144 9.504 0 .756-.072 1.476-.216 2.16zm-.108-4.032h7.74c-.576-2.088-2.196-2.844-3.816-2.844-2.052 0-3.42 1.008-3.924 2.844zm25.344-14.328v25.2h5.76v-25.2zm20.448 6.696c-2.376 0-4.176.864-5.148 2.196v-1.692h-5.4v18h5.4v-9.828c0-2.556 1.368-3.708 3.348-3.708 1.728 0 3.132 1.044 3.132 3.276v10.26h5.4v-11.052c0-4.86-3.096-7.452-6.732-7.452zm20.988 0c-2.376 0-4.176.864-5.148 2.196v-1.692h-5.4v18h5.4v-9.828c0-2.556 1.368-3.708 3.348-3.708 1.728 0 3.132 1.044 3.132 3.276v10.26h5.4v-11.052c0-4.86-3.096-7.452-6.732-7.452zm26.244 5.436c1.872 1.188 3.096 3.132 3.096 5.688 0 4.464-3.636 7.38-8.136 7.38h-10.584v-25.2h9.864c4.392 0 7.956 2.844 7.956 7.2 0 2.088-.828 3.744-2.196 4.932zm-5.76-6.732h-4.104v4.464h4.104c1.296 0 2.196-.936 2.196-2.232s-.864-2.232-2.196-2.232zm.72 14.4c1.44 0 2.376-1.008 2.376-2.412s-.936-2.412-2.376-2.412h-4.824v4.824zm19.776 5.904c-5.292 0-9.54-4.14-9.54-9.504s4.248-9.504 9.54-9.504 9.54 4.14 9.54 9.504-4.248 9.504-9.54 9.504zm0-5.256c2.34 0 4.14-1.692 4.14-4.248s-1.8-4.248-4.14-4.248-4.14 1.692-4.14 4.248 1.8 4.248 4.14 4.248zm-50.592-64.248h14v6h-14v7h14v-52h-32v26h-6v-26h-14v52h32v-22.5-3.5h20v6h-14zm79.292 69h-6.192l-3.348-4.752-3.348 4.752h-6.192l6.444-9.144-6.228-8.856h6.192l3.132 4.464 3.132-4.464h6.192l-6.228 8.856zm-123.292-114h64v64h-64z" fill-rule="evenodd"/></svg>

<svg xmlns="http://www.w3.org/2000/svg" width="184" height="116" viewBox="0 0 184 116">
  <path fill-rule="evenodd" d="M18.788,88.8 L0.068,88.8 L0.068,94.344 L6.548,94.344 L6.548,114 L12.308,114 L12.308,94.344 L18.788,94.344 L18.788,88.8 Z M31.676,95.496 C29.3,95.496 27.5,96.36 26.528,97.692 L26.528,88.8 L21.128,88.8 L21.128,114 L26.528,114 L26.528,104.172 C26.528,101.616 27.896,100.464 29.876,100.464 C31.604,100.464 33.008,101.508 33.008,103.74 L33.008,114 L38.408,114 L38.408,102.948 C38.408,98.088 35.312,95.496 31.676,95.496 Z M46.94,107.16 C47.624,109.032 49.28,109.68 51.26,109.68 C52.736,109.68 53.996,109.104 54.716,108.312 L59.036,110.796 C57.272,113.244 54.608,114.504 51.188,114.504 C45.032,114.504 41.216,110.364 41.216,105 C41.216,99.636 45.104,95.496 50.792,95.496 C56.048,95.496 59.936,99.564 59.936,105 C59.936,105.756 59.864,106.476 59.72,107.16 L46.94,107.16 Z M46.832,103.128 L54.572,103.128 C53.996,101.04 52.376,100.284 50.756,100.284 C48.704,100.284 47.336,101.292 46.832,103.128 Z M72.176,88.8 L72.176,114 L77.936,114 L77.936,88.8 L72.176,88.8 Z M92.624,95.496 C90.248,95.496 88.448,96.36 87.476,97.692 L87.476,96 L82.076,96 L82.076,114 L87.476,114 L87.476,104.172 C87.476,101.616 88.844,100.464 90.824,100.464 C92.552,100.464 93.956,101.508 93.956,103.74 L93.956,114 L99.356,114 L99.356,102.948 C99.356,98.088 96.26,95.496 92.624,95.496 Z M113.612,95.496 C111.236,95.496 109.436,96.36 108.464,97.692 L108.464,96 L103.064,96 L103.064,114 L108.464,114 L108.464,104.172 C108.464,101.616 109.832,100.464 111.812,100.464 C113.54,100.464 114.944,101.508 114.944,103.74 L114.944,114 L120.344,114 L120.344,102.948 C120.344,98.088 117.248,95.496 113.612,95.496 Z M139.856,100.932 C141.728,102.12 142.952,104.064 142.952,106.62 C142.952,111.084 139.316,114 134.816,114 L124.232,114 L124.232,88.8 L134.096,88.8 C138.488,88.8 142.052,91.644 142.052,96 C142.052,98.088 141.224,99.744 139.856,100.932 Z M134.096,94.2 L129.992,94.2 L129.992,98.664 L134.096,98.664 C135.392,98.664 136.292,97.728 136.292,96.432 C136.292,95.136 135.428,94.2 134.096,94.2 Z M134.816,108.6 C136.256,108.6 137.192,107.592 137.192,106.188 C137.192,104.784 136.256,103.776 134.816,103.776 L129.992,103.776 L129.992,108.6 L134.816,108.6 Z M154.592,114.504 C149.3,114.504 145.052,110.364 145.052,105 C145.052,99.636 149.3,95.496 154.592,95.496 C159.884,95.496 164.132,99.636 164.132,105 C164.132,110.364 159.884,114.504 154.592,114.504 Z M154.592,109.248 C156.932,109.248 158.732,107.556 158.732,105 C158.732,102.444 156.932,100.752 154.592,100.752 C152.252,100.752 150.452,102.444 150.452,105 C150.452,107.556 152.252,109.248 154.592,109.248 Z M104,45 L118,45 L118,51 L104,51 L104,58 L118,58 L118,6 L86,6 L86,32 L80,32 L80,6 L66,6 L66,58 L98,58 L98,35.5 L98,32 L118,32 L118,38 L104,38 L104,45 Z M183.292,114 L177.1,114 L173.752,109.248 L170.404,114 L164.212,114 L170.656,104.856 L164.428,96 L170.62,96 L173.752,100.464 L176.884,96 L183.076,96 L176.848,104.856 L183.292,114 Z M60,0 L124,0 L124,64 L60,64 L60,0 Z"/>
</svg>
